X: 13
T:Greensleeves, Longborough
M:6/8
L:1/8
A:Longborough
P:A(AB2)5
K:GMIX
P:A
A|B2A B2d|c2B A2A|B2B G2G   |F2E D2A|
B2A B2d|c2B A2A|B2G A2F   |G3  G2 ||
P:B
z|f2e f2d|c2B A3 |f2e f2e/f/|g2f d2e|
f2e f2d|c2B A2A|B2G A2F   |G3  G2 ||
